img/ph_drop.svg

<?xml version="1.0" encoding="UTF-8" standalone="no"?>
<svg width="618px" height="358px" viewBox="0 0 618 358" version="1.1" xmlns="http://www.w3.org/2000/svg" xmlns:xlink="http://www.w3.org/1999/xlink">
    <!-- Generator: Sketch 47.1 (45422) - http://www.bohemiancoding.com/sketch -->
    <title>DIAGRAM 1.1</title>
    <desc>Created with Sketch.</desc>
    <defs>
        <path d="M9.08474576,2.07585886e-15 L18.1694915,2.07585886e-15 L258,2.07585886e-15 L258,1.77635684e-15 C263.522847,7.61826213e-16 268,4.4771525 268,10 L268,191 L268,191 C268,196.522847 263.522847,201 258,201 L10,201 L10,201 C4.4771525,201 6.76353751e-16,196.522847 0,191 L0,9.08474576 L0,9.08474576 C-6.14450187e-16,4.06737922 4.06737922,2.69803212e-15 9.08474576,1.77635684e-15 Z" id="path-1"></path>
        <path d="M57,2.07585886e-15 L71.3050847,2.07585886e-15 L258,2.07585886e-15 L258,1.77635684e-15 C263.522847,7.61826213e-16 268,4.4771525 268,10 L268,191 L268,191 C268,196.522847 263.522847,201 258,201 L57,201 L57,2.07585886e-15 Z" id="path-2"></path>
        <path d="M198,66 L272,66 L272,66 C274.209139,66 276,67.790861 276,70 L276,133 L276,133 C276,135.209139 274.209139,137 272,137 L198,137 L198,137 C189.715729,137 183,130.284271 183,122 L183,81 L183,81 C183,72.7157288 189.715729,66 198,66 Z" id="path-3"></path>
    </defs>
    <g id="Page-1" stroke="none" stroke-width="1" fill="none" fill-rule="evenodd">
        <g id="White-Paper-Diagrams" transform="translate(-286.000000, -1462.000000)">
            <g id="Havven-Diagram-3-WHITE" transform="translate(286.000000, 1064.000000)">
                <g id="DIAGRAM-1.1" transform="translate(0.000000, 398.000000)">
                    <path d="M226.5,0.5 L240.5,0.5 L240.5,0.5 C241.604569,0.5 242.5,1.3954305 242.5,2.5 L242.5,205.5 L242.5,205.5 C242.5,206.604569 241.604569,207.5 240.5,207.5 L226.5,207.5" id="Path-15" stroke="#171923" stroke-width="1.5" transform="translate(234.500000, 104.000000) rotate(-90.000000) translate(-234.500000, -104.000000) "></path>
                    <path d="M92.2625,76.7375 L106.2625,76.7375 L106.2625,76.7375 C107.367069,76.7375 108.2625,77.6329305 108.2625,78.7375 L108.2625,129.2625 L108.2625,129.2625 C108.2625,130.367069 107.367069,131.2625 106.2625,131.2625 L92.2625,131.2625" id="Path-15" stroke="#171923" stroke-width="1.5" transform="translate(100.262500, 104.000000) rotate(-90.000000) translate(-100.262500, -104.000000) "></path>
                    <g id="Ethers" transform="translate(449.000000, 148.000000)">
                        <ellipse id="Oval" stroke="#171923" fill="#ECF0F1" fill-rule="nonzero" stroke-linecap="round" stroke-linejoin="round" cx="43.5" cy="118.716749" rx="43.5" ry="24.362069"></ellipse>
                        <path d="M3.98820761e-14,114.55665 L0,129.768171 C0,143.17645 19.488,154 43.5,154 C67.512,154 87,143.17645 87,129.768171 L87,114.55665 C87,127.964929 67.512,138.788479 43.5,138.788479 C19.488,138.788479 3.98820761e-14,127.964929 3.98820761e-14,114.55665 Z" id="Shape" stroke="#171923" stroke-width="2" fill="#7F7F7F" fill-rule="nonzero" stroke-linecap="round" stroke-linejoin="round"></path>
                        <path d="M3.98820761e-14,129.55665 L0,144.768171 C0,158.17645 19.488,169 43.5,169 C67.512,169 87,158.17645 87,144.768171 L87,129.55665 C87,142.964929 67.512,153.788479 43.5,153.788479 C19.488,153.788479 3.98820761e-14,142.964929 3.98820761e-14,129.55665 Z" id="Shape" stroke="#171923" stroke-width="2" fill="#7F7F7F" fill-rule="nonzero" stroke-linecap="round" stroke-linejoin="round"></path>
                        <ellipse id="Oval" stroke="#FFFFFF" fill="#6A7EB3" fill-rule="nonzero" stroke-linecap="round" stroke-linejoin="round" cx="43.5" cy="102.475369" rx="43.5" ry="24.362069"></ellipse>
                        <path d="M3.98820761e-14,99.08867 L0,114.30019 C0,127.708469 19.488,138.53202 43.5,138.53202 C67.512,138.53202 87,127.708469 87,114.30019 L87,99.08867 C87,112.496949 67.512,123.320499 43.5,123.320499 C19.488,123.320499 3.98820761e-14,112.496949 3.98820761e-14,99.08867 Z" id="Shape" stroke="#171923" stroke-width="2" fill="#7F7F7F" fill-rule="nonzero" stroke-linecap="round" stroke-linejoin="round"></path>
                        <ellipse id="Oval" stroke="#434A54" fill="#ECF0F1" fill-rule="nonzero" stroke-linecap="round" stroke-linejoin="round" cx="43.5" cy="87.0073892" rx="43.5" ry="24.362069"></ellipse>
                        <path d="M3.98820761e-14,83.6206897 C3.98820761e-14,97.0289685 19.488,107.852519 43.5,107.852519 C67.512,107.852519 87,97.0289685 87,83.6206897 L87,98.8322102 C87,112.240489 67.512,123.064039 43.5,123.064039 C19.488,123.064039 0,112.240489 0,98.8322102 L3.98820761e-14,83.6206897 Z" id="Shape" stroke="#171923" stroke-width="2" fill="#7F7F7F" fill-rule="nonzero" stroke-linecap="round" stroke-linejoin="round"></path>
                        <ellipse id="Oval" stroke="#FFFFFF" fill="#6A7EB3" fill-rule="nonzero" stroke-linecap="round" stroke-linejoin="round" cx="43.5" cy="71.5394089" rx="43.5" ry="24.362069"></ellipse>
                        <path d="M3.98820761e-14,68.3793103 L0,83.5908309 C0,96.9991097 19.488,107.82266 43.5,107.82266 C67.512,107.82266 87,96.9991097 87,83.5908309 L87,68.3793103 C87,81.7875892 67.512,92.6111396 43.5,92.6111396 C19.488,92.6111396 3.98820761e-14,81.7875892 3.98820761e-14,68.3793103 Z" id="Shape" stroke="#171923" stroke-width="2" fill="#7F7F7F" fill-rule="nonzero" stroke-linecap="round" stroke-linejoin="round"></path>
                        <ellipse id="Oval" stroke="#FFFFFF" fill="#17192A" fill-rule="nonzero" stroke-linecap="round" stroke-linejoin="round" cx="43.5" cy="54.5246305" rx="43.5" ry="24.362069"></ellipse>
                        <path d="M3.98820761e-14,53.91133 C3.98820761e-14,67.3196089 19.488,78.1431593 43.5,78.1431593 C67.512,78.1431593 87,67.3196089 87,53.91133 L87,69.1228506 C87,82.5311294 67.512,93.3546798 43.5,93.3546798 C19.488,93.3546798 0,82.5311294 0,69.1228506 L3.98820761e-14,53.91133 Z" id="Shape" stroke="#171923" stroke-width="2" fill="#7F7F7F" fill-rule="nonzero" stroke-linecap="round" stroke-linejoin="round"></path>
                        <ellipse id="Oval" stroke="#434A54" fill="#39838B" fill-rule="nonzero" stroke-linecap="round" stroke-linejoin="round" cx="43.5" cy="39.8300493" rx="43.5" ry="24.362069"></ellipse>
                        <path d="M3.98820761e-14,38.4433498 L0,53.6548703 C0,67.0631491 19.488,77.8866995 43.5,77.8866995 C67.512,77.8866995 87,67.0631491 87,53.6548703 L87,38.4433498 C87,51.8516286 67.512,62.675179 43.5,62.675179 C19.488,62.675179 3.98820761e-14,51.8516286 3.98820761e-14,38.4433498 Z" id="Shape" stroke="#171923" stroke-width="2" fill="#7F7F7F" fill-rule="nonzero" stroke-linecap="round" stroke-linejoin="round"></path>
                        <ellipse id="Oval" stroke="#171923" stroke-width="2" fill="#7F7F7F" fill-rule="nonzero" stroke-linecap="round" stroke-linejoin="round" cx="43.5" cy="24.362069" rx="43.5" ry="24.362069"></ellipse>
                        <g id="ETH" transform="translate(43.316799, 22.852333) rotate(15.000000) translate(-43.316799, -22.852333) translate(34.316799, 8.852333)" stroke="#171923">
                            <polygon id="Path-9" points="9.15625 1 17.3125 13.4317708 9.15625 17.2413793 1 13.4317708"></polygon>
                            <polygon id="Path-11" points="1.51796667 16.2754535 9.67421667 27.8764387 17.8304667 16.2754535 9.67421667 20.3699189"></polygon>
                            <path d="M8.85986248,0.954152594 L9.54464286,17.2413793" id="Path-20"></path>
                            <path d="M9.77678571,27.8023959 L9.3013486,19.9884661" id="Path-20"></path>
                            <polyline id="Path-21" points="0.822868842 13.4604204 9.31320803 10.3734678 17.3129582 13.1830189"></polyline>
                        </g>
                        <path d="M3.98820761e-14,23.2019704 L0,38.413491 C0,51.8217698 19.488,62.6453202 43.5,62.6453202 C67.512,62.6453202 87,51.8217698 87,38.413491 L87,23.2019704 C87,36.6102493 67.512,47.4337997 43.5,47.4337997 C19.488,47.4337997 3.98820761e-14,36.6102493 3.98820761e-14,23.2019704 Z" id="Shape" stroke="#171923" stroke-width="2" fill="#7F7F7F" fill-rule="nonzero" stroke-linecap="round" stroke-linejoin="round"></path>
                    </g>
                    <g id="Wallet" transform="translate(72.000000, 119.000000)">
                        <g id="Rectangle-4">
                            <use fill-opacity="0.514747509" fill="#52578E" fill-rule="evenodd" xlink:href="#path-1"></use>
                            <path stroke="#171923" stroke-width="2" d="M9.08474576,1 C4.61966397,1 1,4.61966397 1,9.08474576 L1,191 C1,195.970563 5.02943725,200 10,200 L258,200 C262.970563,200 267,195.970563 267,191 L267,10 C267,5.02943725 262.970563,1 258,1 L9.08474576,1 Z"></path>
                        </g>
                        <g id="Rectangle-4">
                            <use fill="#52578E" fill-rule="evenodd" xlink:href="#path-2"></use>
                            <path stroke="#171923" stroke-width="2" d="M58,1 L58,200 L258,200 C262.970563,200 267,195.970563 267,191 L267,10 C267,5.02943725 262.970563,1 258,1 L58,1 Z"></path>
                        </g>
                        <g id="Rectangle-4">
                            <use fill="#52578E" fill-rule="evenodd" xlink:href="#path-3"></use>
                            <path stroke="#171923" stroke-width="2" d="M198,67 C190.268014,67 184,73.2680135 184,81 L184,122 C184,129.731986 190.268014,136 198,136 L272,136 C273.656854,136 275,134.656854 275,133 L275,70 C275,68.3431458 273.656854,67 272,67 L198,67 Z"></path>
                        </g>
                        <rect id="Rectangle-4" stroke="#171923" stroke-width="2" x="201" y="87" width="31" height="31" rx="15.5"></rect>
                    </g>
                    <rect id="Rectangle-11" stroke="#171923" stroke-width="2" x="1" y="1" width="616" height="356" rx="6"></rect>
                    <text id="ESCROWED" font-family="Rubik-Regular, Rubik" font-size="15" font-weight="normal" fill="#171923">
                        <tspan x="191.6675" y="87">ESCROWED</tspan>
                    </text>
                    <text id="FREE" font-family="Rubik-Regular, Rubik" font-size="15" font-weight="normal" fill="#171923">
                        <tspan x="82" y="87">FREE</tspan>
                    </text>
                    <text id="11%" font-family="Rubik-Regular, Rubik" font-size="15" font-weight="normal" fill="#171923">
                        <tspan x="89.4325" y="150">11%</tspan>
                    </text>
                    <text id="89%" font-family="Rubik-Regular, Rubik" font-size="15" font-weight="normal" fill="#FFFFFF">
                        <tspan x="216.12" y="150">89%</tspan>
                    </text>
                    <text id="$40-ETH" font-family="Rubik-Regular, Rubik" font-size="15" font-weight="normal" fill="#171923">
                        <tspan x="462.955" y="133">$40 ETH</tspan>
                    </text>
                </g>
            </g>
        </g>
    </g>
</svg>

<?xml version="1.0" encoding="UTF-8" standalone="no"?>
<svg
   xmlns:dc="http://purl.org/dc/elements/1.1/"
   xmlns:cc="http://creativecommons.org/ns#"
   xmlns:rdf="http://www.w3.org/1999/02/22-rdf-syntax-ns#"
   xmlns:svg="http://www.w3.org/2000/svg"
   xmlns="http://www.w3.org/2000/svg"
   xmlns:xlink="http://www.w3.org/1999/xlink"
   xmlns:sodipodi="http://sodipodi.sourceforge.net/DTD/sodipodi-0.dtd"
   xmlns:inkscape="http://www.inkscape.org/namespaces/inkscape"
   width="465"
   height="244.13281"
   viewBox="0 0 465 244.13281"
   version="1.1"
   id="svg90"
   sodipodi:docname="ph_drop.svg"
   inkscape:version="0.92.2 (5c3e80d, 2017-08-06)">
  <metadata
     id="metadata94">
    <rdf:RDF>
      <cc:Work
         rdf:about="">
        <dc:format>image/svg+xml</dc:format>
        <dc:type
           rdf:resource="http://purl.org/dc/dcmitype/StillImage" />
      </cc:Work>
    </rdf:RDF>
  </metadata>
  <sodipodi:namedview
     pagecolor="#ffffff"
     bordercolor="#666666"
     borderopacity="1"
     objecttolerance="10"
     gridtolerance="10"
     guidetolerance="10"
     inkscape:pageopacity="0"
     inkscape:pageshadow="2"
     inkscape:window-width="1216"
     inkscape:window-height="784"
     id="namedview92"
     showgrid="false"
     inkscape:zoom="0.50809061"
     inkscape:cx="237"
     inkscape:cy="142.96815"
     inkscape:window-x="0"
     inkscape:window-y="22"
     inkscape:window-maximized="0"
     inkscape:current-layer="DIAGRAM-1.1" />
  <!-- Generator: Sketch 47.1 (45422) - http://www.bohemiancoding.com/sketch -->
  <title
     id="title2">DIAGRAM 1.1</title>
  <desc
     id="desc4">Created with Sketch.</desc>
  <defs
     id="defs9">
    <path
       d="M 9.0847458,0 H 18.169491 258 v 0 c 5.52285,0 10,4.4771525 10,10 v 181 0 c 0,5.52285 -4.47715,10 -10,10 H 10 v 0 C 4.4771525,201 0,196.52285 0,191 V 9.0847458 v 0 C 0,4.0673792 4.0673792,0 9.0847458,0 Z"
       id="path-1"
       inkscape:connector-curvature="0" />
    <path
       d="M 57,0 H 71.305085 258 v 0 c 5.52285,0 10,4.4771525 10,10 v 181 0 c 0,5.52285 -4.47715,10 -10,10 H 57 Z"
       id="path-2"
       inkscape:connector-curvature="0" />
    <path
       d="m 198,66 h 74 v 0 c 2.20914,0 4,1.790861 4,4 v 63 0 c 0,2.20914 -1.79086,4 -4,4 h -74 v 0 c -8.28427,0 -15,-6.71573 -15,-15 v -41 0 c 0,-8.284271 6.71573,-15 15,-15 z"
       id="path-3"
       inkscape:connector-curvature="0" />
  </defs>
  <g
     id="Page-1"
     style="fill:none;fill-rule:evenodd;stroke:none;stroke-width:1"
     transform="translate(-72,-75.867187)">
    <g
       id="White-Paper-Diagrams"
       transform="translate(-286,-1462)">
      <g
         id="Havven-Diagram-3-WHITE"
         transform="translate(286,1064)">
        <g
           id="DIAGRAM-1.1"
           transform="translate(0,398)">
          <path
             d="m 226.5,0.5 h 14 v 0 c 1.10457,0 2,0.8954305 2,2 v 203 0 c 0,1.10457 -0.89543,2 -2,2 h -14"
             id="Path-15"
             transform="rotate(-90,234.5,104)"
             inkscape:connector-curvature="0"
             style="stroke:#171923;stroke-width:1.5" />
          <path
             d="m 92.2625,76.7375 h 14 v 0 c 1.10457,0 2,0.89543 2,2 v 50.525 0 c 0,1.10457 -0.89543,2 -2,2 h -14"
             id="path12"
             transform="rotate(-90,100.2625,104)"
             inkscape:connector-curvature="0"
             style="stroke:#171923;stroke-width:1.5" />
          <g
             id="Ethers"
             transform="translate(449,148)">
            <ellipse
               id="Oval"
               cx="43.5"
               cy="118.71675"
               rx="43.5"
               ry="24.362068"
               style="fill:#ecf0f1;fill-rule:nonzero;stroke:#171923;stroke-linecap:round;stroke-linejoin:round" />
            <path
               d="m 0,114.55665 v 15.21152 C 0,143.17645 19.488,154 43.5,154 67.512,154 87,143.17645 87,129.76817 v -15.21152 c 0,13.40828 -19.488,24.23183 -43.5,24.23183 -24.012,0 -43.5,-10.82355 -43.5,-24.23183 z"
               id="Shape"
               inkscape:connector-curvature="0"
               style="fill:#7f7f7f;fill-rule:nonzero;stroke:#171923;stroke-width:2;stroke-linecap:round;stroke-linejoin:round" />
            <path
               d="m 0,129.55665 v 15.21152 C 0,158.17645 19.488,169 43.5,169 67.512,169 87,158.17645 87,144.76817 v -15.21152 c 0,13.40828 -19.488,24.23183 -43.5,24.23183 -24.012,0 -43.5,-10.82355 -43.5,-24.23183 z"
               id="path16"
               inkscape:connector-curvature="0"
               style="fill:#7f7f7f;fill-rule:nonzero;stroke:#171923;stroke-width:2;stroke-linecap:round;stroke-linejoin:round" />
            <ellipse
               id="ellipse18"
               cx="43.5"
               cy="102.47537"
               rx="43.5"
               ry="24.362068"
               style="fill:#6a7eb3;fill-rule:nonzero;stroke:#ffffff;stroke-linecap:round;stroke-linejoin:round" />
            <path
               d="m 0,99.08867 v 15.21152 c 0,13.40828 19.488,24.23183 43.5,24.23183 24.012,0 43.5,-10.82355 43.5,-24.23183 V 99.08867 C 87,112.49695 67.512,123.3205 43.5,123.3205 19.488,123.3205 0,112.49695 0,99.08867 Z"
               id="path20"
               inkscape:connector-curvature="0"
               style="fill:#7f7f7f;fill-rule:nonzero;stroke:#171923;stroke-width:2;stroke-linecap:round;stroke-linejoin:round" />
            <ellipse
               id="ellipse22"
               cx="43.5"
               cy="87.007393"
               rx="43.5"
               ry="24.362068"
               style="fill:#ecf0f1;fill-rule:nonzero;stroke:#434a54;stroke-linecap:round;stroke-linejoin:round" />
            <path
               d="m 0,83.62069 c 0,13.408279 19.488,24.23183 43.5,24.23183 24.012,0 43.5,-10.823551 43.5,-24.23183 v 15.21152 c 0,13.40828 -19.488,24.23183 -43.5,24.23183 -24.012,0 -43.5,-10.82355 -43.5,-24.23183 z"
               id="path24"
               inkscape:connector-curvature="0"
               style="fill:#7f7f7f;fill-rule:nonzero;stroke:#171923;stroke-width:2;stroke-linecap:round;stroke-linejoin:round" />
            <ellipse
               id="ellipse26"
               cx="43.5"
               cy="71.539406"
               rx="43.5"
               ry="24.362068"
               style="fill:#6a7eb3;fill-rule:nonzero;stroke:#ffffff;stroke-linecap:round;stroke-linejoin:round" />
            <path
               d="m 0,68.37931 v 15.211521 c 0,13.408279 19.488,24.231829 43.5,24.231829 24.012,0 43.5,-10.82355 43.5,-24.231829 V 68.37931 C 87,81.787589 67.512,92.61114 43.5,92.61114 19.488,92.61114 0,81.787589 0,68.37931 Z"
               id="path28"
               inkscape:connector-curvature="0"
               style="fill:#7f7f7f;fill-rule:nonzero;stroke:#171923;stroke-width:2;stroke-linecap:round;stroke-linejoin:round" />
            <ellipse
               id="ellipse30"
               cx="43.5"
               cy="54.524632"
               rx="43.5"
               ry="24.362068"
               style="fill:#17192a;fill-rule:nonzero;stroke:#ffffff;stroke-linecap:round;stroke-linejoin:round" />
            <path
               d="m 0,53.91133 c 0,13.408279 19.488,24.231829 43.5,24.231829 24.012,0 43.5,-10.82355 43.5,-24.231829 V 69.122851 C 87,82.531129 67.512,93.35468 43.5,93.35468 19.488,93.35468 0,82.531129 0,69.122851 Z"
               id="path32"
               inkscape:connector-curvature="0"
               style="fill:#7f7f7f;fill-rule:nonzero;stroke:#171923;stroke-width:2;stroke-linecap:round;stroke-linejoin:round" />
            <ellipse
               id="ellipse34"
               cx="43.5"
               cy="39.830048"
               rx="43.5"
               ry="24.362068"
               style="fill:#39838b;fill-rule:nonzero;stroke:#434a54;stroke-linecap:round;stroke-linejoin:round" />
            <path
               d="M 0,38.44335 V 53.65487 C 0,67.063149 19.488,77.8867 43.5,77.8867 67.512,77.8867 87,67.063149 87,53.65487 V 38.44335 C 87,51.851629 67.512,62.675179 43.5,62.675179 19.488,62.675179 0,51.851629 0,38.44335 Z"
               id="path36"
               inkscape:connector-curvature="0"
               style="fill:#7f7f7f;fill-rule:nonzero;stroke:#171923;stroke-width:2;stroke-linecap:round;stroke-linejoin:round" />
            <ellipse
               id="ellipse38"
               cx="43.5"
               cy="24.362068"
               rx="43.5"
               ry="24.362068"
               style="fill:#7f7f7f;fill-rule:nonzero;stroke:#171923;stroke-width:2;stroke-linecap:round;stroke-linejoin:round" />
            <g
               id="ETH"
               transform="rotate(15,-7.4616729,148.75715)"
               style="stroke:#171923">
              <polygon
                 id="Path-9"
                 points="1,13.431771 9.15625,1 17.3125,13.431771 9.15625,17.241379 " />
              <polygon
                 id="Path-11"
                 points="9.6742167,20.369919 1.5179667,16.275454 9.6742167,27.876439 17.830467,16.275454 " />
              <path
                 d="M 8.8598625,0.95415259 9.5446429,17.241379"
                 id="Path-20"
                 inkscape:connector-curvature="0" />
              <path
                 d="M 9.7767857,27.802396 9.3013486,19.988466"
                 id="path43"
                 inkscape:connector-curvature="0" />
              <polyline
                 id="Path-21"
                 points="0.822868842 13.4604204 9.31320803 10.3734678 17.3129582 13.1830189" />
            </g>
            <path
               d="M 0,23.20197 V 38.413491 C 0,51.82177 19.488,62.64532 43.5,62.64532 67.512,62.64532 87,51.82177 87,38.413491 V 23.20197 C 87,36.610249 67.512,47.4338 43.5,47.4338 19.488,47.4338 0,36.610249 0,23.20197 Z"
               id="path47"
               inkscape:connector-curvature="0"
               style="fill:#7f7f7f;fill-rule:nonzero;stroke:#171923;stroke-width:2;stroke-linecap:round;stroke-linejoin:round" />
          </g>
          <g
             id="Wallet"
             transform="translate(72,119)">
            <g
               id="Rectangle-4">
              <use
                 xlink:href="#path-1"
                 id="use50"
                 style="fill:#52578e;fill-opacity:0.51474753;fill-rule:evenodd"
                 x="0"
                 y="0"
                 width="100%"
                 height="100%" />
              <path
                 d="M 9.0847458,1 C 4.619664,1 1,4.619664 1,9.0847458 V 191 c 0,4.97056 4.0294372,9 9,9 h 248 c 4.97056,0 9,-4.02944 9,-9 V 10 c 0,-4.9705628 -4.02944,-9 -9,-9 z"
                 id="path52"
                 inkscape:connector-curvature="0"
                 style="stroke:#171923;stroke-width:2" />
            </g>
            <g
               id="g59">
              <use
                 xlink:href="#path-2"
                 id="use55"
                 style="fill:#52578e;fill-rule:evenodd"
                 x="0"
                 y="0"
                 width="100%"
                 height="100%" />
              <path
                 d="m 58,1 v 199 h 200 c 4.97056,0 9,-4.02944 9,-9 V 10 c 0,-4.9705628 -4.02944,-9 -9,-9 z"
                 id="path57"
                 inkscape:connector-curvature="0"
                 style="stroke:#171923;stroke-width:2" />
            </g>
            <g
               id="g65">
              <use
                 xlink:href="#path-3"
                 id="use61"
                 style="fill:#52578e;fill-rule:evenodd"
                 x="0"
                 y="0"
                 width="100%"
                 height="100%" />
              <path
                 d="m 198,67 c -7.73199,0 -14,6.268013 -14,14 v 41 c 0,7.73199 6.26801,14 14,14 h 74 c 1.65685,0 3,-1.34315 3,-3 V 70 c 0,-1.656854 -1.34315,-3 -3,-3 z"
                 id="path63"
                 inkscape:connector-curvature="0"
                 style="stroke:#171923;stroke-width:2" />
            </g>
            <rect
               id="rect67"
               x="201"
               y="87"
               width="31"
               height="31"
               rx="15.5"
               style="stroke:#171923;stroke-width:2" />
          </g>
          <text
             id="ESCROWED"
             font-size="15"
             font-weight="normal"
             style="font-weight:normal;font-size:15px;font-family:Rubik-Regular, Rubik;fill:#171923">
            <tspan
               x="191.6675"
               y="87"
               id="tspan71">ESCROWED</tspan>
          </text>
          <text
             id="FREE"
             font-size="15"
             font-weight="normal"
             style="font-weight:normal;font-size:15px;font-family:Rubik-Regular, Rubik;fill:#171923">
            <tspan
               x="82"
               y="87"
               id="tspan74">FREE</tspan>
          </text>
          <text
             id="11%"
             font-size="15"
             font-weight="normal"
             style="font-weight:normal;font-size:15px;font-family:Rubik-Regular, Rubik;fill:#171923">
            <tspan
               x="89.432503"
               y="150"
               id="tspan77">11%</tspan>
          </text>
          <text
             id="89%"
             font-size="15"
             font-weight="normal"
             style="font-weight:normal;font-size:15px;font-family:Rubik-Regular, Rubik;fill:#ffffff">
            <tspan
               x="216.12"
               y="150"
               id="tspan80">89%</tspan>
          </text>
          <text
             id="$40-ETH"
             font-size="15"
             font-weight="normal"
             style="font-weight:normal;font-size:15px;font-family:Rubik-Regular, Rubik;fill:#171923">
            <tspan
               x="462.95499"
               y="133"
               id="tspan83">$40 ETH</tspan>
          </text>
        </g>
      </g>
    </g>
  </g>
</svg>
